svg/fluentui-system-icons/ic_fluent_document_32_filled.svg

<svg width="32" height="32" viewBox="0 0 32 32" fill="none" xmlns="http://www.w3.org/2000/svg">
<path d="M17 2V9C17 10.6569 18.3431 12 20 12H27V27C27 28.6569 25.6569 30 24 30H8C6.34315 30 5 28.6569 5 27V5C5 3.34315 6.34315 2 8 2H17ZM19 2.11664V9C19 9.55229 19.4477 10 20 10H26.8834C26.7442 9.51572 26.484 9.06977 26.1213 8.70711L20.2929 2.87868C19.9302 2.51602 19.4843 2.2558 19 2.11664Z" fill="#212121"/>
</svg>

<svg xmlns="http://www.w3.org/2000/svg" width="32" height="32"><path d="M17 2v7a3 3 0 0 0 3 3h7v15a3 3 0 0 1-3 3H8a3 3 0 0 1-3-3V5a3 3 0 0 1 3-3h9Zm2 .117V9a1 1 0 0 0 1 1h6.883a3 3 0 0 0-.762-1.293L20.293 2.88A3 3 0 0 0 19 2.117Z"/></svg>
